src/svg/linkedin.svg

<?xml version="1.0" encoding="UTF-8"?>
<svg width="52px" height="52px" viewBox="0 0 52 52" version="1.1" xmlns="http://www.w3.org/2000/svg" xmlns:xlink="http://www.w3.org/1999/xlink">
    <!-- Generator: Sketch 47.1 (45422) - http://www.bohemiancoding.com/sketch -->
    <title>linkedin</title>
    <desc>Created with Sketch.</desc>
    <defs></defs>
    <g id="Icons" stroke="none" stroke-width="1" fill="none" fill-rule="evenodd">
        <g id="linkedin">
            <circle id="Oval" fill="#BDC3C7" cx="26" cy="26" r="26"></circle>
            <path d="M35.8548333,36.8606667 L31.7085,36.8606667 L31.7085,30.3635 C31.7085,28.8141667 31.677,26.8203333 29.5478333,26.8203333 C27.386,26.8203333 27.0558333,28.5061667 27.0558333,30.2491667 L27.0558333,36.8606667 L22.9095,36.8606667 L22.9095,23.5 L26.8925,23.5 L26.8925,25.3211667 L26.9461667,25.3211667 C27.5026667,24.2711667 28.856,23.1628333 30.8778333,23.1628333 C35.079,23.1628333 35.856,25.9278333 35.856,29.527 L35.856,36.8606667 L35.8548333,36.8606667 Z M18.2265,21.6718333 C16.8918333,21.6718333 15.8196667,20.5915 15.8196667,19.2626667 C15.8196667,17.935 16.893,16.8558333 18.2265,16.8558333 C19.5565,16.8558333 20.6345,17.935 20.6345,19.2626667 C20.6345,20.5915 19.5553333,21.6718333 18.2265,21.6718333 Z M20.3055,36.8606667 L16.1475,36.8606667 L16.1475,23.5 L20.3055,23.5 L20.3055,36.8606667 Z M37.9291667,13 L14.0661667,13 C12.924,13 12,13.903 12,15.0171667 L12,38.9828333 C12,40.0981667 12.924,41 14.0661667,41 L37.9256667,41 C39.0666667,41 40,40.0981667 40,38.9828333 L40,15.0171667 C40,13.903 39.0666667,13 37.9256667,13 L37.9291667,13 Z" id="Shape" fill="#FFFFFF" fill-rule="nonzero"></path>
        </g>
    </g>
</svg>

<svg width="52" height="52" xmlns="http://www.w3.org/2000/svg"><path d="M26 52C11.64 52 0 40.36 0 26S11.64 0 26 0s26 11.64 26 26-11.64 26-26 26zm11.93-39H14.065C12.924 13 12 13.903 12 15.017v23.966c0 1.115.924 2.017 2.066 2.017h23.86c1.14 0 2.074-.902 2.074-2.017V15.017C40 13.903 39.067 13 37.926 13h.003zm-2.075 23.86h-4.146v-6.497c0-1.549-.032-3.543-2.161-3.543-2.162 0-2.492 1.686-2.492 3.43v6.61H22.91V23.5h3.982v1.821h.054c.557-1.05 1.91-2.158 3.932-2.158 4.201 0 4.978 2.765 4.978 6.364v7.334h-.001zM18.227 21.673a2.406 2.406 0 0 1-2.407-2.41 2.408 2.408 0 1 1 2.407 2.41zm2.078 15.189h-4.157V23.5h4.157v13.36z" fill-rule="nonzero" fill="#D8D8D8"/></svg>
